dist/img/svg/icon-vk.svg

<svg width="30" height="30" viewBox="0 0 30 30" fill="none" xmlns="http://www.w3.org/2000/svg">
<path d="M14.9999 0C6.7155 0 -0.00012207 6.71562 -0.00012207 15C-0.00012207 23.2844 6.7155 30 14.9999 30C23.2843 30 29.9999 23.2844 29.9999 15C29.9999 6.71562 23.2843 0 14.9999 0ZM20.7686 16.9234C20.7686 16.9234 22.0952 18.2328 22.4218 18.8406C22.4311 18.8531 22.4358 18.8656 22.4389 18.8719C22.5718 19.0953 22.603 19.2687 22.5374 19.3984C22.428 19.6141 22.053 19.7203 21.9249 19.7297H19.5811C19.4186 19.7297 19.078 19.6875 18.6655 19.4031C18.3483 19.1812 18.0358 18.8172 17.7311 18.4625C17.2764 17.9344 16.8827 17.4781 16.4858 17.4781C16.4354 17.478 16.3853 17.4859 16.3374 17.5016C16.0374 17.5984 15.653 18.0266 15.653 19.1672C15.653 19.5234 15.3718 19.7281 15.1733 19.7281H14.0999C13.7343 19.7281 11.8296 19.6 10.1421 17.8203C8.07644 15.6406 6.21706 11.2687 6.20144 11.2281C6.08425 10.9453 6.32644 10.7937 6.5905 10.7937H8.95769C9.27331 10.7937 9.37644 10.9859 9.44831 11.1562C9.53269 11.3547 9.84206 12.1437 10.3499 13.0312C11.1733 14.4781 11.678 15.0656 12.0827 15.0656C12.1586 15.0647 12.2331 15.0454 12.2999 15.0094C12.828 14.7156 12.7296 12.8328 12.7061 12.4422C12.7061 12.3687 12.7046 11.6 12.4343 11.2312C12.2405 10.9641 11.9108 10.8625 11.7108 10.825C11.7918 10.7133 11.8984 10.6227 12.0218 10.5609C12.3843 10.3797 13.0374 10.3531 13.6858 10.3531H14.0468C14.7499 10.3625 14.9311 10.4078 15.1858 10.4719C15.7014 10.5953 15.7124 10.9281 15.6671 12.0672C15.653 12.3906 15.6389 12.7562 15.6389 13.1875C15.6389 13.2812 15.6343 13.3812 15.6343 13.4875C15.6186 14.0672 15.5999 14.725 16.0093 14.9953C16.0626 15.0288 16.1244 15.0467 16.1874 15.0469C16.3296 15.0469 16.7577 15.0469 17.9171 13.0578C18.2746 12.4176 18.5853 11.7523 18.8468 11.0672C18.8702 11.0266 18.9389 10.9016 19.0202 10.8531C19.0802 10.8226 19.1466 10.807 19.2139 10.8078H21.9968C22.2999 10.8078 22.5077 10.8531 22.5468 10.9703C22.6155 11.1562 22.5343 11.7234 21.2639 13.4437L20.6968 14.1922C19.5452 15.7016 19.5452 15.7781 20.7686 16.9234Z" fill="#497FBF"/>
</svg>

<svg width="30" height="30" viewBox="0 0 30 30" fill="none" xmlns="http://www.w3.org/2000/svg"><path d="M15 0C6.715 0 0 6.716 0 15c0 8.284 6.715 15 15 15 8.284 0 15-6.716 15-15 0-8.284-6.716-15-15-15zm5.769 16.923s1.326 1.31 1.653 1.918c.01.012.014.025.017.03.133.224.164.398.098.527-.109.216-.484.322-.612.332H19.58c-.162 0-.503-.043-.915-.327-.318-.222-.63-.586-.935-.94-.455-.529-.848-.985-1.245-.985-.05 0-.1.008-.149.024-.3.096-.684.525-.684 1.665 0 .356-.281.561-.48.561H14.1c-.366 0-2.27-.128-3.958-1.908-2.066-2.18-3.925-6.551-3.94-6.592-.118-.283.124-.434.388-.434h2.368c.315 0 .418.192.49.362.085.199.394.988.902 1.875.823 1.447 1.328 2.035 1.733 2.035a.47.47 0 00.217-.057c.528-.293.43-2.176.406-2.567 0-.073-.001-.842-.272-1.21-.193-.268-.523-.37-.723-.407a.86.86 0 01.31-.264c.363-.181 1.016-.208 1.665-.208h.36c.704.01.885.055 1.14.119.515.123.526.456.481 1.595-.014.324-.028.69-.028 1.12 0 .094-.005.194-.005.3-.015.58-.034 1.238.375 1.508a.337.337 0 00.178.052c.143 0 .57 0 1.73-1.99.358-.64.668-1.305.93-1.99.023-.04.092-.165.173-.214a.416.416 0 01.194-.045h2.783c.303 0 .51.045.55.162.069.186-.013.753-1.283 2.474l-.567.748c-1.152 1.51-1.152 1.586.072 2.731z" fill="#497FBF"/></svg>
